X: 38876
T: Sunny Banks, The
R: reel
M: 4/4
K: Dmajor
B|:A~F3 d2 cA|BdAF ~G3B|A~F3 d2 cA|1 (3Bcd AG FDDB:|2 (3Bcd AG GDDg||
|:fded cAAg|fdef g2 ag|fded cAed|1 (3Bcd AG FDDg:|2 (3Bcd AG FDDB||
B|AF (3FFF dFcA|(3Bcd AF GBAG|DFAF (3ddd AB|dBAG FDDB|
dB|A~F3 [d3D3] c|BdAF (3GAG FG|(3ABA FA [dD]BAF|GBAG FDDB|
B|A~F3 dAcA|BdAF GECE|DFAF d2 eg|fdAG FDDB|
g|fded cdAd|fdef g2 ag|fded cdAd|(3Bcd AG FDDg|
g|fded cAag|fd (3eef g2 ag|faed cAAF|GBAG FDDg||

